X:973
T:Logie o' Buchan
C:Joe Buchanan's Scottish Tome - Page 564.3
I:564 3
Z:Carl Allison
R:Waltz
L:1/4
M:3/4
K:D
"A7"G | "D"F>G A | "A7"A f e | "Bm"d B B | "G"B A/G/ | "D"F>G A | "D"A "G"d e | "D"f d "G"d | "D"d2 A/G/ | 
"D"F>G A | "A7"A f e | "Bm"d B B | "G"B2 A/G/ | "D"F>G A | "D"A d "G"e | "D"f d "G"d | "D"d2 d/e/ | 
"D"f>e f | "F#m"a f "F#7"e | "Bm"d B "F#m"c | "Bm"d2 d/e/ | "Bm"f>g f | "F#m"e d e | "Bm"f e/d/ c/d/ | "Bm"B2 "A7"A/G/ | 
"D"F>G A | "A7"A f e | "Bm"d B B | "G"B2 A/G/ | "D"F>G A | "D"A d "G"e | "D"f d d | "D"d3 |] 

